dashboard/assets/pic-74-78b941bb0fb55756.svg

<svg xmlns="http://www.w3.org/2000/svg" viewBox="0 0 31.97 28.04"><g data-name="图层 2"><path d="M12.13 15.9a3.24 3.24 0 00-2.53-1.46H5.11a3.25 3.25 0 00-2.52 1.46L.35 19.79a3.18 3.18 0 000 2.91l2.24 3.89A3.24 3.24 0 005.11 28H9.6a3.23 3.23 0 002.53-1.45l2.24-3.89a3.24 3.24 0 000-2.91zm19.49 3.89l-2.25-3.89a3.22 3.22 0 00-2.52-1.46h-4.49a3.24 3.24 0 00-2.52 1.46l-2.24 3.89a3.18 3.18 0 000 2.91l2.24 3.89A3.23 3.23 0 0022.36 28h4.49a3.21 3.21 0 002.52-1.45l2.25-3.89a3.24 3.24 0 000-2.87zm-20.4-7.64a3.21 3.21 0 002.52 1.45h4.49a3.23 3.23 0 002.52-1.45L23 8.26a3.2 3.2 0 000-2.92l-2.25-3.88A3.24 3.24 0 0018.23 0h-4.49a3.22 3.22 0 00-2.52 1.46L9 5.34a3.26 3.26 0 000 2.92z" fill="#375d81" data-name="Layer 1"/></g></svg>

<svg xmlns="http://www.w3.org/2000/svg" viewBox="0 0 31.97 28.04"><defs><style>.cls-1{fill:#375d81;}</style></defs><title>资源 8</title><g id="图层_2" data-name="图层 2"><g id="Layer_1" data-name="Layer 1"><path class="cls-1" d="M12.13,15.9A3.24,3.24,0,0,0,9.6,14.44H5.11A3.25,3.25,0,0,0,2.59,15.9L.35,19.79a3.18,3.18,0,0,0,0,2.91l2.24,3.89A3.24,3.24,0,0,0,5.11,28H9.6a3.23,3.23,0,0,0,2.53-1.45l2.24-3.89a3.24,3.24,0,0,0,0-2.91Zm19.49,3.89L29.37,15.9a3.22,3.22,0,0,0-2.52-1.46H22.36a3.24,3.24,0,0,0-2.52,1.46L17.6,19.79a3.18,3.18,0,0,0,0,2.91l2.24,3.89A3.23,3.23,0,0,0,22.36,28h4.49a3.21,3.21,0,0,0,2.52-1.45l2.25-3.89A3.24,3.24,0,0,0,31.62,19.79Zm-20.4-7.64a3.21,3.21,0,0,0,2.52,1.45h4.49a3.23,3.23,0,0,0,2.52-1.45L23,8.26a3.2,3.2,0,0,0,0-2.92L20.75,1.46A3.24,3.24,0,0,0,18.23,0H13.74a3.22,3.22,0,0,0-2.52,1.46L9,5.34A3.26,3.26,0,0,0,9,8.26Z"/></g></g></svg>
